X:1
T:Title
%%score { 1 | ( 2 3 ) }
L:1/8
Q:1/4=100
M:4/4
K:G
V:1 treble nm="Grand Piano"
V:2 bass 
V:3 bass 
V:1
 [B,D]2 [B,G]>[CA] [DB]2 [Ec]2 | [DB]2 [CA]>[B,^G] [CA]4 | D2 F>G [FA]2 [Ec]2 | [DB]6 z2 | %4
w: J.~S.~Norris * * * *||||
 [B,D]2 [B,G]>[CA] [DB]2 [Ec]2 | [DB]2 [CA]>[B,^G] [CA]4 | D2 [Fc]>c E2 F2 | [B,G]6 z2 | %8
w: ||||
 [EGc]>[EGc] [EGc]>[EGc] [Ge]4 | B>B B>B d4 | G>G G>G B2 A2 | [FA]6 z2 | %12
w: ||||
 [B,D]>[B,D] [B,DG]>[CDA] [DGB]4 | [EGc]>[EGc] [CE]>[CE] [CEA]4 | [A,D]2 [EAc]2 [CDE]2 [CDF]2 | %15
w: |||
 [B,DG]6 z2 |] %16
w: |
V:2
 [G,,G,]2 [G,,G,]2 [G,,G,]2 [G,,G,]2 | [D,,D,]2 [D,,D,]2 [D,,D,]4 | z2 D2 z4 | [G,,G,]6 z2 | %4
 [G,,G,]2 [G,,G,]2 [G,,G,]2 [G,,G,]2 | [D,,D,]2 [D,,D,]2 [D,,D,]4 | %6
 [D,F,]2 z z/ F/ [D,A,C]2 [D,A,C]2 | [G,,D,G,]6 z2 | C,>C, C,>C, [C,C]4 | %9
 [G,DG]>[G,DG] [G,DG]>[G,DG] [G,B,G]4 | [A,^CE]>[A,CE] [A,CE]>[A,CE] [A,EG]2 [A,CG]2 | %11
 [D,D]2 C2 B,2 A,2 | G,>G, G,>G, G,4 | C,>C, C,>C, A,,4 | D,2 D,2 D,2 D,2 | G,,6 z2 |] %16
V:3
 x8 | x8 | [D,F,]2 [D,F,A,]->[D,F,A,E] [D,F,]2 [D,F,]2 | x8 | x8 | x8 | z2 [D,A,]2 z4 | x8 | x8 | %9
 x8 | x8 | x8 | x8 | x8 | x8 | x8 |] %16

